X:818
T:Godfather, The
R:reel
D:Brian Rooney
D:Folan & Davey
D:Kevin Crawford: d Flute Album
Z:hn-reel-818
M:C|
L:1/8
K:D
~A3B ADFA|BFAF EDFE|DA,~A,2 DFAF|GBAG FDDF|
A2^GB ADFA|BFAF EDFE|DB,~B,2 A,2dB|1 AFEG FDD2:|2 AFEG FDFA||
|:dcdf af~f2|afbf afef|df~f2 Adfa|bfaf e3g|
~f3g afdf|g2fg eB~B2|ABdf fedB|1 AFEG FDFA:|2 AFEG FDD2||
P:variations
|:~A3B ADFA|BFAF EDFE|DA,~A,2 DFAF|GEAG FDDA|
BA^GB ADFA|BFAF EDFE|DB,~B,2 A,B,dB|1 AFEG FDFG:|2 AFEG FDFA||
|:d3f af~f2|afbf afef|~d3f adfa|bfaf egfe|
fgab afdf|gefd edBd|ABdf fedB|1 AFEG FDFA:|2 AFEG FDFG||

